X: 22804
T: Lanigan's Ball
R: jig
M: 6/8
K: Eminor
|:d|e2f g2a|b2a b^c'd'|ded f2g|ad'b afd|
e2f g2a|b2a b^c'd'|e'd'b c'ba|bge e2:|
|:d|e2f g2e|fag fed|e2f g2e|fdB B2B|
e2f g2e|fag fed'|e'd'b c'ba|bge e2:|

